X: 37047
T: Silver Lining
R: jig
M: 6/8
K: Dmajor
FG|:Adf aaa|ba^g a2 =g|f/g/af gec|dAF GFG|Adf aaa|
ba^g a2 =g|f/g/af gec|1 ABc dFG:|2 ABc dcB||
|:AFA DFA|BGE B,EG|AFA def|gfg edB|
AFA DFA|BGE B,EG|Adf agf|1 gec dcB:|2 gec dFG||

